src/pos-icons/decimal-comma.svg

<svg height="24" viewBox="0 0 24 24" width="24" xmlns="http://www.w3.org/2000/svg"><path d="m10 7a3 3 0 0 1 3 3v3a3 3 0 0 1 -6 0v-3a3 3 0 0 1 3-3m0 2a1 1 0 0 0 -1 1v3a1 1 0 0 0 2 0v-3a1 1 0 0 0 -1-1m7-2a3 3 0 0 1 3 3v3a3 3 0 0 1 -6 0v-3a3 3 0 0 1 3-3m0 2a1 1 0 0 0 -1 1v3a1 1 0 0 0 2 0v-3a1 1 0 0 0 -1-1m-12 5a1 1 0 0 0 -1 1l1 3h1v-3a1 1 0 0 0 -1-1z"/></svg>

<?xml version="1.0" encoding="UTF-8"?><!DOCTYPE svg PUBLIC "-//W3C//DTD SVG 1.1//EN" "http://www.w3.org/Graphics/SVG/1.1/DTD/svg11.dtd"><svg xmlns="http://www.w3.org/2000/svg" xmlns:xlink="http://www.w3.org/1999/xlink" version="1.1" id="mdi-decimal-comma" width="24" height="24" viewBox="0 0 24 24"><path d="M10 7A3 3 0 0 1 13 10V13A3 3 0 0 1 7 13V10A3 3 0 0 1 10 7M10 9A1 1 0 0 0 9 10V13A1 1 0 0 0 11 13V10A1 1 0 0 0 10 9M17 7A3 3 0 0 1 20 10V13A3 3 0 0 1 14 13V10A3 3 0 0 1 17 7M17 9A1 1 0 0 0 16 10V13A1 1 0 0 0 18 13V10A1 1 0 0 0 17 9M5 14A1 1 0 0 0 4 15L5 18H6V15A1 1 0 0 0 5 14Z" /></svg>
